Newaita-dark/apps/16/com.github.plugarut.pwned-checker.svg

<svg height="16" viewBox="0 0 16 16" width="16" xmlns="http://www.w3.org/2000/svg" xmlns:xlink="http://www.w3.org/1999/xlink"><linearGradient id="a"><stop offset="0" stop-opacity=".313726"/><stop offset=".222222" stop-opacity=".27451"/><stop offset="1" stop-opacity="0"/></linearGradient><radialGradient id="b" cx="450.908936" cy="189.579361" gradientTransform="matrix(.00000009 -.0390662 -.0703192 -.00000005 24.411521 31.797665)" gradientUnits="userSpaceOnUse" r="21.166656" xlink:href="#a"/><radialGradient id="c" cx="450.908936" cy="189.579361" gradientTransform="matrix(-.00000009 .0390662 .0703192 .00000005 -8.535003 -3.76374)" gradientUnits="userSpaceOnUse" r="21.166656" xlink:href="#a"/><radialGradient id="d" cx="450.908936" cy="189.579361" gradientTransform="matrix(-.00000009 -.0390662 .0703192 -.00000005 -8.535003 31.797665)" gradientUnits="userSpaceOnUse" r="21.166656" xlink:href="#a"/><radialGradient id="e" cx="450.908936" cy="189.579361" gradientTransform="matrix(.00000009 .0390662 -.0703192 .00000005 24.41152 -3.763741)" gradientUnits="userSpaceOnUse" r="21.166656" xlink:href="#a"/><linearGradient id="f" gradientTransform="matrix(.1336 0 0 .0249743 -26.172998 8.318354)" gradientUnits="userSpaceOnUse" x1="255.322968" x2="255.323044" y1="228.178589" y2="254.666656"><stop offset="0" stop-opacity=".27451"/><stop offset="1" stop-opacity="0"/></linearGradient><linearGradient id="g" gradientUnits="userSpaceOnUse" x1="7.938262" x2="7.938262" y1="14.0169675" y2="7.4017491875"><stop offset="0" stop-color="#546e7a"/><stop offset="1" stop-color="#607d8b"/></linearGradient><linearGradient id="h" gradientUnits="userSpaceOnUse" x1="7.9382592" x2="7.9382592" y1="14.01696600048" y2="1.4480552201"><stop offset="0" stop-color="#bdbdbd"/><stop offset="1" stop-color="#eee"/></linearGradient><linearGradient id="i" gradientUnits="userSpaceOnUse" x1="7.938262" x2="7.938262" y1="14.0169675" y2="1.44805300003"><stop offset="0" stop-color="#9ccc65"/><stop offset="1" stop-color="#aed581"/></linearGradient><path d="m11.246094 14.015625h1.324218v-.660156h-1.324218zm0 0" fill="url(#b)"/><path d="m4.628906 14.015625h-1.320312v.664063h1.320312zm0 0" fill="url(#c)"/><path d="m4.628906 14.015625h-1.320312v-.660156h1.320312zm0 0" fill="url(#d)"/><path d="m11.246094 14.015625h1.324218v.664063h-1.324218zm0 0" fill="url(#e)"/><path d="m4.628906 14.019531h6.617188v.660157h-6.617188zm0 0" fill="url(#f)"/><path d="m3.96875 7.402344h7.9375c.367188 0 .664062.296875.664062.660156v5.292969c0 .367187-.296874.660156-.664062.660156h-7.9375c-.363281 0-.660156-.292969-.660156-.660156v-5.292969c0-.363281.296875-.660156.660156-.660156zm0 0" fill="url(#g)"/><path d="m7.9375 1.449219c-2.015625 0-3.636719 1.621093-3.636719 3.636719v2.316406h.992188v-2.316406c0-1.464844 1.179687-2.644532 2.644531-2.644532s2.648438 1.179688 2.648438 2.644532v2.316406h.992187v-2.316406c0-2.015626-1.625-3.636719-3.640625-3.636719zm0 0" fill="url(#h)"/><path d="m7.9375 1.449219c-2.015625 0-3.636719 1.621093-3.636719 3.636719v2.316406h.992188v-2.316406c0-1.464844 1.179687-2.644532 2.644531-2.644532s2.648438 1.179688 2.648438 2.644532v2.316406h.992187v-2.316406c0-2.015626-1.625-3.636719-3.640625-3.636719zm0 0" fill="#cfcfcf"/><path d="m7.9375 1.449219c-2.015625 0-3.636719 1.621093-3.636719 3.636719v.164062c0-2.015625 1.621094-3.636719 3.636719-3.636719s3.640625 1.621094 3.640625 3.636719v-.164062c0-2.015626-1.625-3.636719-3.640625-3.636719zm0 0" fill="#fff" fill-opacity=".784314"/><path d="m7.9375 2.273438c-1.464844 0-2.644531 1.183593-2.644531 2.648437v.164063c0-1.464844 1.179687-2.644532 2.644531-2.644532s2.648438 1.179688 2.648438 2.644532v-.164063c0-1.464844-1.183594-2.648437-2.648438-2.648437zm-3.636719 4.964843v.164063h.992188v-.164063zm6.285157 0v.164063h.992187v-.164063zm0 0" fill-opacity=".235294"/><path d="m959.908384 175.258863c-243.756263 0-439.800544 196.044282-439.800544 439.800544v280.130744h119.988548v-280.130744c0-177.148446 142.663549-319.811996 319.811996-319.811996s320.284392 142.66355 320.284392 319.811996v280.130744h119.988548v-280.130744c0-243.756262-196.516677-439.800544-440.27294-439.800544zm0 0" fill="none" stroke="#212121" stroke-linecap="round" stroke-linejoin="round" stroke-width="11.338583" transform="scale(.00826902)"/><path d="m3.96875 14.015625c-.367188 0-.660156-.292969-.660156-.660156v-.332031c0 .367187.292968.664062.660156.664062h7.9375c.367188 0 .664062-.296875.664062-.664062v.332031c0 .367187-.296874.660156-.664062.660156zm0 0" fill-opacity=".235294"/><path d="m3.96875 7.402344c-.367188 0-.660156.292968-.660156.660156v.332031c0-.367187.292968-.660156.660156-.660156h7.9375c.367188 0 .664062.292969.664062.660156v-.332031c0-.367188-.296874-.660156-.664062-.660156zm0 0" fill="#fff" fill-opacity=".392157"/><path d="m3.96875 7.355469c-.390625 0-.707031.316406-.707031.707031v5.292969c0 .390625.316406.707031.707031.707031h7.9375c.394531 0 .710938-.316406.710938-.707031v-5.292969c0-.390625-.316407-.707031-.710938-.707031zm0 .09375h7.9375c.34375 0 .617188.273437.617188.613281v5.292969c0 .339843-.273438.613281-.617188.613281h-7.9375c-.339844 0-.613281-.273438-.613281-.613281v-5.292969c0-.339844.273437-.613281.613281-.613281zm0 0" fill="#212121"/><path d="m12.605469 5.082031c-.21875-.007812-.425781.089844-.554688.261719l-4.199219 5.394531-2.78125-2.503906c-.171874-.160156-.421874-.214844-.648437-.140625-.222656.070312-.394531.257812-.441406.492188-.050781.230468.03125.472656.210937.628906l3.304688 2.976562c.136718.121094.316406.183594.5.164063.183594-.015625.351562-.105469.460937-.25l4.632813-5.953125c.152344-.195313.1875-.457032.085937-.683594-.101562-.226562-.324219-.375-.570312-.386719zm0 0" fill="url(#i)"/><path d="m12.605469 5.082031c-.21875-.007812-.425781.089844-.554688.261719l-4.199219 5.394531-2.78125-2.503906c-.207031-.191406-.519531-.226563-.765624-.089844-.25.140625-.378907.421875-.324219.703125.042969-.234375.210937-.425781.4375-.5.226562-.078125.476562-.023437.652343.140625l2.78125 2.503907 4.199219-5.398438c.128907-.171875.335938-.269531.554688-.257812.304687.011718.558593.234374.613281.53125.039062-.1875-.007812-.382813-.125-.53125-.121094-.152344-.296875-.246094-.488281-.253907zm0 0" fill="#fff" fill-opacity=".392157"/><path d="m12.097656 7.429688-3.640625 4.679687c-.109375.144531-.277343.234375-.460937.25-.183594.019531-.363282-.042969-.5-.164063l-3.304688-2.976562c-.082031-.074219-.144531-.164062-.183594-.265625-.09375.257813-.023437.546875.183594.726563l3.304688 2.976562c.136718.125.316406.183594.5.167969s.351562-.109375.460937-.25l3.890625-5.003907c-.070312-.0625-.15625-.113281-.25-.140624zm0 0" fill-opacity=".235294"/><path d="m403.336483-52.390528c-6.999331-.249977-13.623699 2.874725-17.748305 8.3742l-134.362169 172.608517-88.991502-80.11735c-5.499474-5.12451-13.498711-6.874343-20.748018-4.49957-7.12432 2.249785-12.623795 8.249212-14.123652 15.748496-1.624844 7.374296.999905 15.123556 6.749356 20.123079l105.739902 95.240904c4.374583 3.87463 10.124033 5.874439 15.998472 5.249499 5.87444-.499952 11.248926-3.374678 14.748592-7.999236l148.235844-190.48181c4.874535-6.249403 5.999427-14.623603 2.749738-21.872911-3.24969-7.249308-10.37401-11.998854-18.248258-12.373818zm0 0" fill="none" stroke="#212121" stroke-linecap="round" stroke-linejoin="round" stroke-width="3" transform="matrix(.031253 0 0 .031253 0 6.719392)"/></svg>

<?xml version="1.0" encoding="UTF-8"?>
<svg xmlns="http://www.w3.org/2000/svg" xmlns:xlink="http://www.w3.org/1999/xlink" width="16px" height="16px" viewBox="0 0 16 16" version="1.1">
<defs>
<radialGradient id="radial0" gradientUnits="userSpaceOnUse" cx="450.908936" cy="189.579361" fx="450.908936" fy="189.579361" r="21.166656" gradientTransform="matrix(0.0000000870852,-0.0390662,-0.0703192,-0.0000000507693,24.411521,31.797665)">
<stop offset="0" style="stop-color:rgb(0%,0%,0%);stop-opacity:0.313726;"/>
<stop offset="0.222222" style="stop-color:rgb(0%,0%,0%);stop-opacity:0.27451;"/>
<stop offset="1" style="stop-color:rgb(0%,0%,0%);stop-opacity:0;"/>
</radialGradient>
<radialGradient id="radial1" gradientUnits="userSpaceOnUse" cx="450.908936" cy="189.579361" fx="450.908936" fy="189.579361" r="21.166656" gradientTransform="matrix(-0.0000000870852,0.0390662,0.0703192,0.0000000507693,-8.535003,-3.76374)">
<stop offset="0" style="stop-color:rgb(0%,0%,0%);stop-opacity:0.313726;"/>
<stop offset="0.222222" style="stop-color:rgb(0%,0%,0%);stop-opacity:0.27451;"/>
<stop offset="1" style="stop-color:rgb(0%,0%,0%);stop-opacity:0;"/>
</radialGradient>
<radialGradient id="radial2" gradientUnits="userSpaceOnUse" cx="450.908936" cy="189.579361" fx="450.908936" fy="189.579361" r="21.166656" gradientTransform="matrix(-0.0000000870852,-0.0390662,0.0703192,-0.0000000507693,-8.535003,31.797665)">
<stop offset="0" style="stop-color:rgb(0%,0%,0%);stop-opacity:0.313726;"/>
<stop offset="0.222222" style="stop-color:rgb(0%,0%,0%);stop-opacity:0.27451;"/>
<stop offset="1" style="stop-color:rgb(0%,0%,0%);stop-opacity:0;"/>
</radialGradient>
<radialGradient id="radial3" gradientUnits="userSpaceOnUse" cx="450.908936" cy="189.579361" fx="450.908936" fy="189.579361" r="21.166656" gradientTransform="matrix(0.0000000870852,0.0390662,-0.0703192,0.0000000507693,24.41152,-3.763741)">
<stop offset="0" style="stop-color:rgb(0%,0%,0%);stop-opacity:0.313726;"/>
<stop offset="0.222222" style="stop-color:rgb(0%,0%,0%);stop-opacity:0.27451;"/>
<stop offset="1" style="stop-color:rgb(0%,0%,0%);stop-opacity:0;"/>
</radialGradient>
<linearGradient id="linear0" gradientUnits="userSpaceOnUse" x1="255.322968" y1="228.178589" x2="255.323044" y2="254.666656" gradientTransform="matrix(0.1336,0,0,0.0249743,-26.172998,8.318354)">
<stop offset="0" style="stop-color:rgb(0%,0%,0%);stop-opacity:0.27451;"/>
<stop offset="1" style="stop-color:rgb(0%,0%,0%);stop-opacity:0;"/>
</linearGradient>
<linearGradient id="linear1" gradientUnits="userSpaceOnUse" x1="254" y1="233.5" x2="254" y2="21.833334" gradientTransform="matrix(0.031253,0,0,0.031253,0,6.719392)">
<stop offset="0" style="stop-color:rgb(32.941177%,43.137255%,47.843137%);stop-opacity:1;"/>
<stop offset="1" style="stop-color:rgb(37.64706%,49.019608%,54.509807%);stop-opacity:1;"/>
</linearGradient>
<linearGradient id="linear2" gradientUnits="userSpaceOnUse" x1="960" y1="1695.118164" x2="960" y2="175.118118" gradientTransform="matrix(0.00826902,0,0,0.00826902,0,0)">
<stop offset="0" style="stop-color:rgb(74.117649%,74.117649%,74.117649%);stop-opacity:1;"/>
<stop offset="1" style="stop-color:rgb(93.333334%,93.333334%,93.333334%);stop-opacity:1;"/>
</linearGradient>
<linearGradient id="linear3" gradientUnits="userSpaceOnUse" x1="254" y1="233.5" x2="254" y2="-168.666656" gradientTransform="matrix(0.031253,0,0,0.031253,0,6.719392)">
<stop offset="0" style="stop-color:rgb(61.176473%,80.000001%,39.607844%);stop-opacity:1;"/>
<stop offset="1" style="stop-color:rgb(68.235296%,83.529413%,50.588238%);stop-opacity:1;"/>
</linearGradient>
</defs>
<g id="surface1">
<path style=" stroke:none;fill-rule:nonzero;fill:url(#radial0);" d="M 11.246094 14.015625 L 12.570312 14.015625 L 12.570312 13.355469 L 11.246094 13.355469 Z M 11.246094 14.015625 "/>
<path style=" stroke:none;fill-rule:nonzero;fill:url(#radial1);" d="M 4.628906 14.015625 L 3.308594 14.015625 L 3.308594 14.679688 L 4.628906 14.679688 Z M 4.628906 14.015625 "/>
<path style=" stroke:none;fill-rule:nonzero;fill:url(#radial2);" d="M 4.628906 14.015625 L 3.308594 14.015625 L 3.308594 13.355469 L 4.628906 13.355469 Z M 4.628906 14.015625 "/>
<path style=" stroke:none;fill-rule:nonzero;fill:url(#radial3);" d="M 11.246094 14.015625 L 12.570312 14.015625 L 12.570312 14.679688 L 11.246094 14.679688 Z M 11.246094 14.015625 "/>
<path style=" stroke:none;fill-rule:nonzero;fill:url(#linear0);" d="M 4.628906 14.019531 L 11.246094 14.019531 L 11.246094 14.679688 L 4.628906 14.679688 Z M 4.628906 14.019531 "/>
<path style=" stroke:none;fill-rule:nonzero;fill:url(#linear1);" d="M 3.96875 7.402344 L 11.90625 7.402344 C 12.273438 7.402344 12.570312 7.699219 12.570312 8.0625 L 12.570312 13.355469 C 12.570312 13.722656 12.273438 14.015625 11.90625 14.015625 L 3.96875 14.015625 C 3.605469 14.015625 3.308594 13.722656 3.308594 13.355469 L 3.308594 8.0625 C 3.308594 7.699219 3.605469 7.402344 3.96875 7.402344 Z M 3.96875 7.402344 "/>
<path style=" stroke:none;fill-rule:nonzero;fill:url(#linear2);" d="M 7.9375 1.449219 C 5.921875 1.449219 4.300781 3.070312 4.300781 5.085938 L 4.300781 7.402344 L 5.292969 7.402344 L 5.292969 5.085938 C 5.292969 3.621094 6.472656 2.441406 7.9375 2.441406 C 9.402344 2.441406 10.585938 3.621094 10.585938 5.085938 L 10.585938 7.402344 L 11.578125 7.402344 L 11.578125 5.085938 C 11.578125 3.070312 9.953125 1.449219 7.9375 1.449219 Z M 7.9375 1.449219 "/>
<path style=" stroke:none;fill-rule:nonzero;fill:rgb(81.176472%,81.176472%,81.176472%);fill-opacity:1;" d="M 7.9375 1.449219 C 5.921875 1.449219 4.300781 3.070312 4.300781 5.085938 L 4.300781 7.402344 L 5.292969 7.402344 L 5.292969 5.085938 C 5.292969 3.621094 6.472656 2.441406 7.9375 2.441406 C 9.402344 2.441406 10.585938 3.621094 10.585938 5.085938 L 10.585938 7.402344 L 11.578125 7.402344 L 11.578125 5.085938 C 11.578125 3.070312 9.953125 1.449219 7.9375 1.449219 Z M 7.9375 1.449219 "/>
<path style=" stroke:none;fill-rule:nonzero;fill:rgb(100%,100%,100%);fill-opacity:0.784314;" d="M 7.9375 1.449219 C 5.921875 1.449219 4.300781 3.070312 4.300781 5.085938 L 4.300781 5.25 C 4.300781 3.234375 5.921875 1.613281 7.9375 1.613281 C 9.953125 1.613281 11.578125 3.234375 11.578125 5.25 L 11.578125 5.085938 C 11.578125 3.070312 9.953125 1.449219 7.9375 1.449219 Z M 7.9375 1.449219 "/>
<path style=" stroke:none;fill-rule:nonzero;fill:rgb(0%,0%,0%);fill-opacity:0.235294;" d="M 7.9375 2.273438 C 6.472656 2.273438 5.292969 3.457031 5.292969 4.921875 L 5.292969 5.085938 C 5.292969 3.621094 6.472656 2.441406 7.9375 2.441406 C 9.402344 2.441406 10.585938 3.621094 10.585938 5.085938 L 10.585938 4.921875 C 10.585938 3.457031 9.402344 2.273438 7.9375 2.273438 Z M 4.300781 7.238281 L 4.300781 7.402344 L 5.292969 7.402344 L 5.292969 7.238281 Z M 10.585938 7.238281 L 10.585938 7.402344 L 11.578125 7.402344 L 11.578125 7.238281 Z M 10.585938 7.238281 "/>
<path style="fill:none;stroke-width:11.338583;stroke-linecap:round;stroke-linejoin:round;stroke:rgb(12.941177%,12.941177%,12.941177%);stroke-opacity:1;stroke-miterlimit:4;" d="M 959.908384 175.258863 C 716.152121 175.258863 520.10784 371.303145 520.10784 615.059407 L 520.10784 895.190151 L 640.096388 895.190151 L 640.096388 615.059407 C 640.096388 437.910961 782.759937 295.247411 959.908384 295.247411 C 1137.056831 295.247411 1280.192776 437.910961 1280.192776 615.059407 L 1280.192776 895.190151 L 1400.181324 895.190151 L 1400.181324 615.059407 C 1400.181324 371.303145 1203.664647 175.258863 959.908384 175.258863 Z M 959.908384 175.258863 " transform="matrix(0.00826902,0,0,0.00826902,0,0)"/>
<path style=" stroke:none;fill-rule:nonzero;fill:rgb(0%,0%,0%);fill-opacity:0.235294;" d="M 3.96875 14.015625 C 3.601562 14.015625 3.308594 13.722656 3.308594 13.355469 L 3.308594 13.023438 C 3.308594 13.390625 3.601562 13.6875 3.96875 13.6875 L 11.90625 13.6875 C 12.273438 13.6875 12.570312 13.390625 12.570312 13.023438 L 12.570312 13.355469 C 12.570312 13.722656 12.273438 14.015625 11.90625 14.015625 Z M 3.96875 14.015625 "/>
<path style=" stroke:none;fill-rule:nonzero;fill:rgb(100%,100%,100%);fill-opacity:0.392157;" d="M 3.96875 7.402344 C 3.601562 7.402344 3.308594 7.695312 3.308594 8.0625 L 3.308594 8.394531 C 3.308594 8.027344 3.601562 7.734375 3.96875 7.734375 L 11.90625 7.734375 C 12.273438 7.734375 12.570312 8.027344 12.570312 8.394531 L 12.570312 8.0625 C 12.570312 7.695312 12.273438 7.402344 11.90625 7.402344 Z M 3.96875 7.402344 "/>
<path style=" stroke:none;fill-rule:nonzero;fill:rgb(12.941177%,12.941177%,12.941177%);fill-opacity:1;" d="M 3.96875 7.355469 C 3.578125 7.355469 3.261719 7.671875 3.261719 8.0625 L 3.261719 13.355469 C 3.261719 13.746094 3.578125 14.0625 3.96875 14.0625 L 11.90625 14.0625 C 12.300781 14.0625 12.617188 13.746094 12.617188 13.355469 L 12.617188 8.0625 C 12.617188 7.671875 12.300781 7.355469 11.90625 7.355469 Z M 3.96875 7.449219 L 11.90625 7.449219 C 12.25 7.449219 12.523438 7.722656 12.523438 8.0625 L 12.523438 13.355469 C 12.523438 13.695312 12.25 13.96875 11.90625 13.96875 L 3.96875 13.96875 C 3.628906 13.96875 3.355469 13.695312 3.355469 13.355469 L 3.355469 8.0625 C 3.355469 7.722656 3.628906 7.449219 3.96875 7.449219 Z M 3.96875 7.449219 "/>
<path style=" stroke:none;fill-rule:nonzero;fill:url(#linear3);" d="M 12.605469 5.082031 C 12.386719 5.074219 12.179688 5.171875 12.050781 5.34375 L 7.851562 10.738281 L 5.070312 8.234375 C 4.898438 8.074219 4.648438 8.019531 4.421875 8.09375 C 4.199219 8.164062 4.027344 8.351562 3.980469 8.585938 C 3.929688 8.816406 4.011719 9.058594 4.191406 9.214844 L 7.496094 12.191406 C 7.632812 12.3125 7.8125 12.375 7.996094 12.355469 C 8.179688 12.339844 8.347656 12.25 8.457031 12.105469 L 13.089844 6.152344 C 13.242188 5.957031 13.277344 5.695312 13.175781 5.46875 C 13.074219 5.242188 12.851562 5.09375 12.605469 5.082031 Z M 12.605469 5.082031 "/>
<path style=" stroke:none;fill-rule:nonzero;fill:rgb(100%,100%,100%);fill-opacity:0.392157;" d="M 12.605469 5.082031 C 12.386719 5.074219 12.179688 5.171875 12.050781 5.34375 L 7.851562 10.738281 L 5.070312 8.234375 C 4.863281 8.042969 4.550781 8.007812 4.304688 8.144531 C 4.054688 8.285156 3.925781 8.566406 3.980469 8.847656 C 4.023438 8.613281 4.191406 8.421875 4.417969 8.347656 C 4.644531 8.269531 4.894531 8.324219 5.070312 8.488281 L 7.851562 10.992188 L 12.050781 5.59375 C 12.179688 5.421875 12.386719 5.324219 12.605469 5.335938 C 12.910156 5.347656 13.164062 5.570312 13.21875 5.867188 C 13.257812 5.679688 13.210938 5.484375 13.09375 5.335938 C 12.972656 5.183594 12.796875 5.089844 12.605469 5.082031 Z M 12.605469 5.082031 "/>
<path style=" stroke:none;fill-rule:nonzero;fill:rgb(0%,0%,0%);fill-opacity:0.235294;" d="M 12.097656 7.429688 L 8.457031 12.109375 C 8.347656 12.253906 8.179688 12.34375 7.996094 12.359375 C 7.8125 12.378906 7.632812 12.316406 7.496094 12.195312 L 4.191406 9.21875 C 4.109375 9.144531 4.046875 9.054688 4.007812 8.953125 C 3.914062 9.210938 3.984375 9.5 4.191406 9.679688 L 7.496094 12.65625 C 7.632812 12.78125 7.8125 12.839844 7.996094 12.824219 C 8.179688 12.808594 8.347656 12.714844 8.457031 12.574219 L 12.347656 7.570312 C 12.277344 7.507812 12.191406 7.457031 12.097656 7.429688 Z M 12.097656 7.429688 "/>
<path style="fill:none;stroke-width:3;stroke-linecap:round;stroke-linejoin:round;stroke:rgb(12.941177%,12.941177%,12.941177%);stroke-opacity:1;stroke-miterlimit:4;" d="M 403.336483 -52.390528 C 396.337152 -52.640505 389.712784 -49.515803 385.588178 -44.016328 L 251.226009 128.592189 L 162.234507 48.474839 C 156.735033 43.350329 148.735796 41.600496 141.486489 43.975269 C 134.362169 46.225054 128.862694 52.224481 127.362837 59.723765 C 125.737993 67.098061 128.362742 74.847321 134.112193 79.846844 L 239.852095 175.087748 C 244.226678 178.962378 249.976128 180.962187 255.850567 180.337247 C 261.725007 179.837295 267.099493 176.962569 270.599159 172.338011 L 418.835003 -18.143799 C 423.709538 -24.393202 424.83443 -32.767402 421.584741 -40.01671 C 418.335051 -47.266018 411.210731 -52.015564 403.336483 -52.390528 Z M 403.336483 -52.390528 " transform="matrix(0.031253,0,0,0.031253,0,6.719392)"/>
</g>
</svg>
